X: 30252
M: C
L: 1/16
K: Am
|:\
E4A3B c3A^G3A | B4e3f e4c3B | A3fe3d c2de d3c | B4B3B B4z4 |\
E4A3B c3de3f | g4g3f e4d4 | c3Bd3c B4e4 | A4A3A A4z4 :|
|:\


